status/24/gpm-primary-040.svg

<?xml version="1.0" encoding="UTF-8" standalone="no"?>
<!-- Created with Inkscape (http://www.inkscape.org/) -->

<svg
   xmlns:svg="http://www.w3.org/2000/svg"
   xmlns="http://www.w3.org/2000/svg"
   xmlns:xlink="http://www.w3.org/1999/xlink"
   version="1.0"
   width="24"
   height="24"
   id="svg2">
  <defs
     id="defs4">
    <linearGradient
       id="linearGradient4151-767-958">
      <stop
         id="stop4470"
         style="stop-color:#979797;stop-opacity:1"
         offset="0" />
      <stop
         id="stop4472"
         style="stop-color:#d5d5d5;stop-opacity:1"
         offset="1" />
    </linearGradient>
    <linearGradient
       id="linearGradient3578-995-735-4-566-885-385-488-812-692-807">
      <stop
         id="stop2523"
         style="stop-color:#777e01;stop-opacity:1"
         offset="0" />
      <stop
         id="stop2525"
         style="stop-color:#d4df24;stop-opacity:1"
         offset="1" />
    </linearGradient>
    <linearGradient
       id="linearGradient3598-871-484-814-161-889-287-317-39-832-450">
      <stop
         id="stop2517"
         style="stop-color:#e8f240;stop-opacity:1"
         offset="0" />
      <stop
         id="stop2519"
         style="stop-color:#899110;stop-opacity:1"
         offset="1" />
    </linearGradient>
    <linearGradient
       id="linearGradient3592-990-183-196-279-371-272-744-724-968-795">
      <stop
         id="stop2511"
         style="stop-color:#cbd255;stop-opacity:1"
         offset="0" />
      <stop
         id="stop2513"
         style="stop-color:#b0ba09;stop-opacity:1"
         offset="1" />
    </linearGradient>
    <linearGradient
       id="linearGradient3539-33">
      <stop
         id="stop4440"
         style="stop-color:white;stop-opacity:1"
         offset="0" />
      <stop
         id="stop4442"
         style="stop-color:white;stop-opacity:0"
         offset="1" />
    </linearGradient>
    <linearGradient
       id="linearGradient4173-908-339">
      <stop
         id="stop4476"
         style="stop-color:#b2b2b2;stop-opacity:1"
         offset="0" />
      <stop
         id="stop4478"
         style="stop-color:#e6e6e6;stop-opacity:1"
         offset="1" />
    </linearGradient>
    <linearGradient
       id="linearGradient3564-531">
      <stop
         id="stop4452"
         style="stop-color:white;stop-opacity:0.37288135"
         offset="0" />
      <stop
         id="stop4454"
         style="stop-color:#a9a9a9;stop-opacity:0"
         offset="1" />
    </linearGradient>
    <linearGradient
       id="linearGradient10033-588-987">
      <stop
         id="stop4446"
         style="stop-color:#e5e5e5;stop-opacity:1"
         offset="0" />
      <stop
         id="stop4448"
         style="stop-color:#b2b2b2;stop-opacity:1"
         offset="1" />
    </linearGradient>
    <linearGradient
       x1="4"
       y1="13.500015"
       x2="10.142856"
       y2="13.500015"
       id="linearGradient2624"
       xlink:href="#linearGradient4151-767-958"
       gradientUnits="userSpaceOnUse"
       gradientTransform="matrix(0.8666667,0,0,1,-19.846179,-21.289172)"
       spreadMethod="reflect" />
    <linearGradient
       x1="4"
       y1="13.500015"
       x2="10.142856"
       y2="13.500015"
       id="linearGradient2626"
       xlink:href="#linearGradient3578-995-735-4-566-885-385-488-812-692-807"
       gradientUnits="userSpaceOnUse"
       gradientTransform="matrix(0.8666667,0,0,1,-19.846178,-21.289172)"
       spreadMethod="reflect" />
    <linearGradient
       x1="15.036061"
       y1="11.205624"
       x2="19.776941"
       y2="18.184662"
       id="linearGradient2628"
       xlink:href="#linearGradient3592-990-183-196-279-371-272-744-724-968-795"
       gradientUnits="userSpaceOnUse"
       gradientTransform="matrix(0.5064111,0,0,0.3656364,-21.600045,-11.934183)" />
    <linearGradient
       x1="24"
       y1="16.525082"
       x2="24"
       y2="13.284962"
       id="linearGradient2630"
       xlink:href="#linearGradient3598-871-484-814-161-889-287-317-39-832-450"
       gradientUnits="userSpaceOnUse"
       gradientTransform="matrix(0.5064111,0,0,0.3656364,-21.600045,-11.934183)" />
    <linearGradient
       x1="15.036061"
       y1="11.205624"
       x2="19.776941"
       y2="18.184662"
       id="linearGradient2632"
       xlink:href="#linearGradient10033-588-987"
       gradientUnits="userSpaceOnUse"
       gradientTransform="matrix(0.5064111,0,0,0.3656364,-21.599651,-21.934183)" />
    <linearGradient
       x1="24"
       y1="16.525082"
       x2="24"
       y2="13.284962"
       id="linearGradient2634"
       xlink:href="#linearGradient3539-33"
       gradientUnits="userSpaceOnUse"
       gradientTransform="matrix(0.5064111,0,0,0.3656364,-21.599651,-21.934183)" />
    <linearGradient
       x1="21.714285"
       y1="10.285714"
       x2="27.038286"
       y2="10.285714"
       id="linearGradient2636"
       xlink:href="#linearGradient4173-908-339"
       gradientUnits="userSpaceOnUse"
       gradientTransform="matrix(0.5513378,0,0,0.6057331,-22.55605,-24.235253)" />
    <linearGradient
       x1="15.036061"
       y1="11.205624"
       x2="19.776941"
       y2="18.184662"
       id="linearGradient2638"
       xlink:href="#linearGradient10033-588-987"
       gradientUnits="userSpaceOnUse"
       gradientTransform="matrix(0.1938623,0,0,0.11461,-14.098479,-20.764044)" />
    <linearGradient
       x1="24"
       y1="16.525082"
       x2="24"
       y2="13.284962"
       id="linearGradient2640"
       xlink:href="#linearGradient3564-531"
       gradientUnits="userSpaceOnUse"
       gradientTransform="matrix(0.1938623,0,0,0.11461,-14.098479,-20.764044)" />
  </defs>
  <g
     id="layer1">
    <g
       transform="translate(21.445783,20.289157)"
       id="g2616">
      <path
         d="m -9.4461776,-18.789156 c -3.5959274,0 -6.5000004,0.889355 -6.5000004,2 0,6.666667 0,11.1458317 0,17.8124995 0.0014,0.00869 0.02755,0.021488 0.03125,0.03125 -0.01161,0.049043 -0.03125,0.106297 -0.03125,0.15625 0,1.110072 2.905928,2 6.5000004,2 3.594072,0 6.5,-0.889929 6.5,-2 0,-0.019426 0.00177,-0.043206 0,-0.0625 0,-6.6666668 0,-11.2708325 0,-17.9374995 0,-1.110645 -2.904074,-2 -6.5,-2 z"
         id="rect2432"
         style="opacity:0.4;fill:url(#linearGradient2624);fill-opacity:1;fill-rule:nonzero;stroke:#575757;stroke-width:0.99999994;stroke-linecap:round;stroke-linejoin:round;stroke-miterlimit:10;stroke-opacity:1;stroke-dasharray:none;stroke-dashoffset:0;marker:none;visibility:visible;display:inline;overflow:visible;enable-background:accumulate" />
      <path
         d="m -15.946178,-6.7891565 c 0,6.66666696 0,1.1458322 0,7.8125 0.0014,0.00869 0.02755,0.021488 0.03125,0.03125 -0.01161,0.049043 -0.03125,0.106297 -0.03125,0.15625 0,1.110072 2.905928,2 6.5000004,2 3.594072,0 6.5,-0.889929 6.5,-2 0,-0.019426 0.00177,-0.043206 0,-0.0625 0,-6.6666668 0,-1.27083304 0,-7.9375 -4.333333,0 -8.6666664,0 -13.0000004,0 z"
         id="path2481"
         style="fill:url(#linearGradient2626);fill-opacity:1;fill-rule:nonzero;stroke:#899110;stroke-width:0.99999994;stroke-linecap:round;stroke-linejoin:round;stroke-miterlimit:10;stroke-opacity:1;stroke-dasharray:none;stroke-dashoffset:0;marker:none;visibility:visible;display:inline;overflow:visible;enable-background:accumulate" />
      <path
         d="m -2.9351786,-6.7891565 c 0,1.110645 -2.915074,2.011 -6.511,2.011 -3.5959264,0 -6.5109994,-0.900355 -6.5109994,-2.011 0,-1.110645 2.915073,-2.0110005 6.5109994,-2.0110005 3.595926,0 6.511,0.9003555 6.511,2.0110005 l 0,0 z"
         id="path2483"
         style="fill:url(#linearGradient2628);fill-opacity:1;fill-rule:nonzero;stroke:url(#linearGradient2630);stroke-width:0.97799999;stroke-linecap:butt;stroke-linejoin:round;stroke-miterlimit:10;stroke-opacity:1;stroke-dasharray:none;stroke-dashoffset:0;marker:none;visibility:visible;display:block;overflow:visible" />
      <path
         d="m -2.9347846,-16.789157 c 0,1.110645 -2.915073,2.011001 -6.510999,2.011001 -3.5959264,0 -6.5110004,-0.900356 -6.5110004,-2.011001 0,-1.110644 2.915074,-2.011 6.5110004,-2.011 3.595926,0 6.510999,0.900356 6.510999,2.011 l 0,0 z"
         id="path3243"
         style="opacity:0.4;fill:url(#linearGradient2632);fill-opacity:1;fill-rule:nonzero;stroke:url(#linearGradient2634);stroke-width:0.97799999;stroke-linecap:butt;stroke-linejoin:round;stroke-miterlimit:10;stroke-opacity:1;stroke-dasharray:none;stroke-dashoffset:0;marker:none;visibility:visible;display:block;overflow:visible" />
      <path
         d="m -9.3848956,-19.618125 c -1.3001004,-0.01827 -2.5534034,0.26074 -2.5534034,0.645757 0,0.03819 0,1.292732 0,1.332501 0,0.532146 1.449186,0.843226 2.5534034,0.843226 1.104215,0 2.431627,-0.31108 2.431627,-0.843226 0,-0.0315 0,-1.050678 0,-1.332501 0,-0.281822 -1.11929,-0.62731 -2.431627,-0.645757 z"
         id="path3251"
         style="opacity:0.3;fill:url(#linearGradient2636);fill-opacity:1;fill-rule:nonzero;stroke:#919191;stroke-width:1.01496899;stroke-linecap:butt;stroke-linejoin:round;stroke-miterlimit:10;stroke-opacity:1;stroke-dasharray:none;stroke-dashoffset:0;marker:none;visibility:visible;display:block;overflow:visible" />
      <path
         d="m -6.9532686,-19.151317 c 0,0.348135 -1.115937,0.630355 -2.492515,0.630355 -1.3765784,0 -2.4925154,-0.28222 -2.4925154,-0.630355 0,-0.348136 1.115937,-0.630355 2.4925154,-0.630355 1.376578,0 2.492515,0.282219 2.492515,0.630355 l 0,0 z"
         id="path3253"
         style="opacity:0.4;fill:url(#linearGradient2638);fill-opacity:1;fill-rule:nonzero;stroke:url(#linearGradient2640);stroke-width:1.01496887;stroke-linecap:butt;stroke-linejoin:round;stroke-miterlimit:10;stroke-opacity:1;stroke-dasharray:none;stroke-dashoffset:0;marker:none;visibility:visible;display:block;overflow:visible" />
    </g>
  </g>
</svg>

<?xml version="1.0" encoding="UTF-8" standalone="no"?>
<!-- Created with Inkscape (http://www.inkscape.org/) -->
<svg
   xmlns:svg="http://www.w3.org/2000/svg"
   xmlns="http://www.w3.org/2000/svg"
   xmlns:xlink="http://www.w3.org/1999/xlink"
   version="1.0"
   width="24"
   height="24"
   id="svg2">
  <defs
     id="defs4">
    <linearGradient
       id="linearGradient4151-767-958">
      <stop
         id="stop4470"
         style="stop-color:#979797;stop-opacity:1"
         offset="0" />
      <stop
         id="stop4472"
         style="stop-color:#d5d5d5;stop-opacity:1"
         offset="1" />
    </linearGradient>
    <linearGradient
       id="linearGradient3578-995-735-4-566-885-385-488-812-692-807">
      <stop
         id="stop2523"
         style="stop-color:#777e01;stop-opacity:1"
         offset="0" />
      <stop
         id="stop2525"
         style="stop-color:#d4df24;stop-opacity:1"
         offset="1" />
    </linearGradient>
    <linearGradient
       id="linearGradient3598-871-484-814-161-889-287-317-39-832-450">
      <stop
         id="stop2517"
         style="stop-color:#e8f240;stop-opacity:1"
         offset="0" />
      <stop
         id="stop2519"
         style="stop-color:#899110;stop-opacity:1"
         offset="1" />
    </linearGradient>
    <linearGradient
       id="linearGradient3592-990-183-196-279-371-272-744-724-968-795">
      <stop
         id="stop2511"
         style="stop-color:#cbd255;stop-opacity:1"
         offset="0" />
      <stop
         id="stop2513"
         style="stop-color:#b0ba09;stop-opacity:1"
         offset="1" />
    </linearGradient>
    <linearGradient
       id="linearGradient3539-33">
      <stop
         id="stop4440"
         style="stop-color:#ffffff;stop-opacity:1"
         offset="0" />
      <stop
         id="stop4442"
         style="stop-color:#ffffff;stop-opacity:0"
         offset="1" />
    </linearGradient>
    <linearGradient
       id="linearGradient4173-908-339">
      <stop
         id="stop4476"
         style="stop-color:#b2b2b2;stop-opacity:1"
         offset="0" />
      <stop
         id="stop4478"
         style="stop-color:#e6e6e6;stop-opacity:1"
         offset="1" />
    </linearGradient>
    <linearGradient
       id="linearGradient3564-531">
      <stop
         id="stop4452"
         style="stop-color:#ffffff;stop-opacity:0.37288135"
         offset="0" />
      <stop
         id="stop4454"
         style="stop-color:#a9a9a9;stop-opacity:0"
         offset="1" />
    </linearGradient>
    <linearGradient
       id="linearGradient10033-588-987">
      <stop
         id="stop4446"
         style="stop-color:#e5e5e5;stop-opacity:1"
         offset="0" />
      <stop
         id="stop4448"
         style="stop-color:#b2b2b2;stop-opacity:1"
         offset="1" />
    </linearGradient>
    <linearGradient
       x1="4"
       y1="13.500015"
       x2="10.142856"
       y2="13.500015"
       id="linearGradient2624"
       xlink:href="#linearGradient4151-767-958"
       gradientUnits="userSpaceOnUse"
       gradientTransform="matrix(0.8666667,0,0,1,-19.846179,-21.289172)"
       spreadMethod="reflect" />
    <linearGradient
       x1="4"
       y1="13.500015"
       x2="10.142856"
       y2="13.500015"
       id="linearGradient2626"
       xlink:href="#linearGradient3578-995-735-4-566-885-385-488-812-692-807"
       gradientUnits="userSpaceOnUse"
       gradientTransform="matrix(0.8666667,0,0,1,-19.846178,-21.289172)"
       spreadMethod="reflect" />
    <linearGradient
       x1="15.036061"
       y1="11.205624"
       x2="19.776941"
       y2="18.184662"
       id="linearGradient2628"
       xlink:href="#linearGradient3592-990-183-196-279-371-272-744-724-968-795"
       gradientUnits="userSpaceOnUse"
       gradientTransform="matrix(0.5064111,0,0,0.3656364,-21.600045,-11.934183)" />
    <linearGradient
       x1="24"
       y1="16.525082"
       x2="24"
       y2="13.284962"
       id="linearGradient2630"
       xlink:href="#linearGradient3598-871-484-814-161-889-287-317-39-832-450"
       gradientUnits="userSpaceOnUse"
       gradientTransform="matrix(0.5064111,0,0,0.3656364,-21.600045,-11.934183)" />
    <linearGradient
       x1="15.036061"
       y1="11.205624"
       x2="19.776941"
       y2="18.184662"
       id="linearGradient2632"
       xlink:href="#linearGradient10033-588-987"
       gradientUnits="userSpaceOnUse"
       gradientTransform="matrix(0.5064111,0,0,0.3656364,-21.599651,-21.934183)" />
    <linearGradient
       x1="24"
       y1="16.525082"
       x2="24"
       y2="13.284962"
       id="linearGradient2634"
       xlink:href="#linearGradient3539-33"
       gradientUnits="userSpaceOnUse"
       gradientTransform="matrix(0.5064111,0,0,0.3656364,-21.599651,-21.934183)" />
    <linearGradient
       x1="21.714285"
       y1="10.285714"
       x2="27.038286"
       y2="10.285714"
       id="linearGradient2636"
       xlink:href="#linearGradient4173-908-339"
       gradientUnits="userSpaceOnUse"
       gradientTransform="matrix(0.5513378,0,0,0.6057331,-22.55605,-24.235253)" />
    <linearGradient
       x1="15.036061"
       y1="11.205624"
       x2="19.776941"
       y2="18.184662"
       id="linearGradient2638"
       xlink:href="#linearGradient10033-588-987"
       gradientUnits="userSpaceOnUse"
       gradientTransform="matrix(0.1938623,0,0,0.11461,-14.098479,-20.764044)" />
    <linearGradient
       x1="24"
       y1="16.525082"
       x2="24"
       y2="13.284962"
       id="linearGradient2640"
       xlink:href="#linearGradient3564-531"
       gradientUnits="userSpaceOnUse"
       gradientTransform="matrix(0.1938623,0,0,0.11461,-14.098479,-20.764044)" />
  </defs>
  <g
     id="layer1">
    <g
       transform="translate(21.445783,20.289157)"
       id="g2616">
      <path
         d="M -9.4461776,-18.789156 C -13.042105,-18.789156 -15.946178,-17.899801 -15.946178,-16.789156 C -15.946178,-10.122489 -15.946178,-5.6433243 -15.946178,1.0233435 C -15.94473,1.0320305 -15.918627,1.0448315 -15.914928,1.0545935 C -15.926538,1.1036365 -15.946178,1.1608905 -15.946178,1.2108435 C -15.946178,2.3209155 -13.04025,3.2108435 -9.4461776,3.2108435 C -5.8521056,3.2108435 -2.9461776,2.3209145 -2.9461776,1.2108435 C -2.9461776,1.1914175 -2.9444026,1.1676375 -2.9461776,1.1483435 C -2.9461776,-5.5183233 -2.9461776,-10.122489 -2.9461776,-16.789156 C -2.9461776,-17.899801 -5.8502516,-18.789156 -9.4461776,-18.789156 z"
         id="rect2432"
         style="opacity:0.4;fill:url(#linearGradient2624);fill-opacity:1;fill-rule:nonzero;stroke:#575757;stroke-width:0.99999994;stroke-linecap:round;stroke-linejoin:round;marker:none;marker-start:none;marker-mid:none;marker-end:none;stroke-miterlimit:10;stroke-dasharray:none;stroke-dashoffset:0;stroke-opacity:1;visibility:visible;display:inline;overflow:visible;enable-background:accumulate" />
      <path
         d="M -15.946178,-6.7891565 C -15.946178,-0.12248954 -15.946178,-5.6433243 -15.946178,1.0233435 C -15.94473,1.0320305 -15.918627,1.0448315 -15.914928,1.0545935 C -15.926537,1.1036365 -15.946178,1.1608905 -15.946178,1.2108435 C -15.946178,2.3209155 -13.04025,3.2108435 -9.4461776,3.2108435 C -5.8521056,3.2108435 -2.9461776,2.3209145 -2.9461776,1.2108435 C -2.9461776,1.1914175 -2.9444026,1.1676375 -2.9461776,1.1483435 C -2.9461776,-5.5183233 -2.9461776,-0.12248954 -2.9461776,-6.7891565 C -7.2795106,-6.7891565 -11.612844,-6.7891565 -15.946178,-6.7891565 z"
         id="path2481"
         style="fill:url(#linearGradient2626);fill-opacity:1;fill-rule:nonzero;stroke:#899110;stroke-width:0.99999994;stroke-linecap:round;stroke-linejoin:round;marker:none;marker-start:none;marker-mid:none;marker-end:none;stroke-miterlimit:10;stroke-dasharray:none;stroke-dashoffset:0;stroke-opacity:1;visibility:visible;display:inline;overflow:visible;enable-background:accumulate" />
      <path
         d="M -2.9351786,-6.7891565 C -2.9351786,-5.6785115 -5.8502526,-4.7781565 -9.4461786,-4.7781565 C -13.042105,-4.7781565 -15.957178,-5.6785115 -15.957178,-6.7891565 C -15.957178,-7.8998015 -13.042105,-8.800157 -9.4461786,-8.800157 C -5.8502526,-8.800157 -2.9351786,-7.8998015 -2.9351786,-6.7891565 L -2.9351786,-6.7891565 z"
         id="path2483"
         style="fill:url(#linearGradient2628);fill-opacity:1;fill-rule:nonzero;stroke:url(#linearGradient2630);stroke-width:0.97799999;stroke-linecap:butt;stroke-linejoin:round;marker:none;marker-start:none;marker-mid:none;marker-end:none;stroke-miterlimit:10;stroke-dasharray:none;stroke-dashoffset:0;stroke-opacity:1;visibility:visible;display:block;overflow:visible" />
      <path
         d="M -2.9347846,-16.789157 C -2.9347846,-15.678512 -5.8498576,-14.778156 -9.4457836,-14.778156 C -13.04171,-14.778156 -15.956784,-15.678512 -15.956784,-16.789157 C -15.956784,-17.899801 -13.04171,-18.800157 -9.4457836,-18.800157 C -5.8498576,-18.800157 -2.9347846,-17.899801 -2.9347846,-16.789157 L -2.9347846,-16.789157 z"
         id="path3243"
         style="opacity:0.4;fill:url(#linearGradient2632);fill-opacity:1;fill-rule:nonzero;stroke:url(#linearGradient2634);stroke-width:0.97799999;stroke-linecap:butt;stroke-linejoin:round;marker:none;marker-start:none;marker-mid:none;marker-end:none;stroke-miterlimit:10;stroke-dasharray:none;stroke-dashoffset:0;stroke-opacity:1;visibility:visible;display:block;overflow:visible" />
      <path
         d="M -9.3848956,-19.618125 C -10.684996,-19.636399 -11.938299,-19.357385 -11.938299,-18.972368 C -11.938299,-18.934182 -11.938299,-17.679636 -11.938299,-17.639867 C -11.938299,-17.107721 -10.489113,-16.796641 -9.3848956,-16.796641 C -8.2806806,-16.796641 -6.9532686,-17.107721 -6.9532686,-17.639867 C -6.9532686,-17.671365 -6.9532686,-18.690545 -6.9532686,-18.972368 C -6.9532686,-19.25419 -8.0725586,-19.599678 -9.3848956,-19.618125 z"
         id="path3251"
         style="opacity:0.3;fill:url(#linearGradient2636);fill-opacity:1;fill-rule:nonzero;stroke:#919191;stroke-width:1.01496899;stroke-linecap:butt;stroke-linejoin:round;marker:none;marker-start:none;marker-mid:none;marker-end:none;stroke-miterlimit:10;stroke-dasharray:none;stroke-dashoffset:0;stroke-opacity:1;visibility:visible;display:block;overflow:visible" />
      <path
         d="M -6.9532686,-19.151317 C -6.9532686,-18.803182 -8.0692056,-18.520962 -9.4457836,-18.520962 C -10.822362,-18.520962 -11.938299,-18.803182 -11.938299,-19.151317 C -11.938299,-19.499453 -10.822362,-19.781672 -9.4457836,-19.781672 C -8.0692056,-19.781672 -6.9532686,-19.499453 -6.9532686,-19.151317 L -6.9532686,-19.151317 z"
         id="path3253"
         style="opacity:0.4;fill:url(#linearGradient2638);fill-opacity:1;fill-rule:nonzero;stroke:url(#linearGradient2640);stroke-width:1.01496887;stroke-linecap:butt;stroke-linejoin:round;marker:none;marker-start:none;marker-mid:none;marker-end:none;stroke-miterlimit:10;stroke-dasharray:none;stroke-dashoffset:0;stroke-opacity:1;visibility:visible;display:block;overflow:visible" />
    </g>
  </g>
</svg>
